packages/foundations/assets/icons/functional/images/audio & video/skip_forward_20_filled.svg

<svg width="20" height="20" viewBox="0 0 20 20" fill="none" xmlns="http://www.w3.org/2000/svg">
<g clip-path="url(#clip0_2202_609)">
<path fill-rule="evenodd" clip-rule="evenodd" d="M4.00004 15.003V5.016C4.00004 4.508 4.39004 4.02 5.01604 4C5.21204 4 5.40704 4.059 5.58304 4.176L11.787 8.632C12.237 8.945 12.51 9.452 12.51 10C12.51 10.528 12.236 11.055 11.787 11.348L5.54404 15.844C5.37953 15.9453 5.19026 15.9993 4.99704 16C4.86578 16.0012 4.73559 15.9762 4.61409 15.9266C4.49259 15.8769 4.3822 15.8035 4.28938 15.7107C4.19656 15.6178 4.12317 15.5075 4.07349 15.386C4.02381 15.2644 3.99884 15.1343 4.00004 15.003ZM14.007 14.007V5.993C14.0081 5.72917 14.1134 5.47644 14.2999 5.28989C14.4865 5.10333 14.7392 4.99805 15.003 4.997C15.55 4.997 16 5.447 16 5.994V14.007C15.999 14.271 15.8936 14.5239 15.7068 14.7105C15.52 14.8971 15.267 15.0022 15.003 15.003C14.7392 15.0019 14.4865 14.8967 14.2999 14.7101C14.1134 14.5236 14.0081 14.2708 14.007 14.007Z" fill="#1A1C1F"/>
</g>
<defs>
<clipPath id="clip0_2202_609">
<rect width="20" height="20" fill="white"/>
</clipPath>
</defs>
</svg>

<svg xmlns="http://www.w3.org/2000/svg" width="20" height="20" fill="none"><g clip-path="url(#a)"><path fill="#1A1C1F" fill-rule="evenodd" d="M4 15.003V5.016C4 4.508 4.39 4.02 5.016 4c.196 0 .391.059.567.176l6.204 4.456c.45.313.723.82.723 1.368 0 .528-.274 1.055-.723 1.348l-6.243 4.496a1.05 1.05 0 0 1-.93.083.99.99 0 0 1-.614-.924m10.007-.996V5.993a1 1 0 0 1 .996-.996c.547 0 .997.45.997.997v8.013a1 1 0 0 1-.997.996 1 1 0 0 1-.996-.996" clip-rule="evenodd"/></g><defs><clipPath id="a"><path fill="#fff" d="M0 0h20v20H0z"/></clipPath></defs></svg>
